!!!COA: Josquin des Prez
!!!CDT: ~1450-1521/08/27
!!!OTL@@FRA: Je n'ose plus
!!!AGN: Chanson
!!!SCT: NJE 27.19
!!!SCA: New Josquin Edition 27.19
!!!voices: 3
**kern	**kern	**kern
*staff3	*staff2	*staff1
*Ivox	*Ivox	*Ivox
*I"Contra	*I"Tenor	*I"Superius
*I'C	*I'T	*I'S
*>[A,B]	*>[A,B]	*>[A,B]
*>Part1[A]	*>Part1[A]	*>Part1[A]
*>Part2[B]	*>Part2[B]	*>Part2[B]
*clefF4	*clefGv2	*clefG2
*>A	*>A	*>A
*k[]	*k[]	*k[]
*M2/1	*M2/1	*M2/1
*met(C|)	*met(C|)	*met(C|)
=1-	=1-	=1-
0r	1G	0r
.	[1c	.
=2	=2	=2
1r	1c]	0r
1G	1d	.
=3	=3	=3
1E	0e	1g
1C	.	[1cc
=4	=4	=4
1.F	0f	1cc]
.	.	1dd
4E\	.	.
4D\	.	.
=5	=5	=5
0C	1e	0ee
.	1c	.
=6	=6	=6
1r	0d	0ff
1B-	.	.
=7	=7	=7
1c	1c	1ee
1G	1B	[1dd
=8	=8	=8
0A	0c	2dd\]
.	.	2cc\
.	.	[1cc
=9	=9	=9
0G	0d	1cc]
.	.	1b
=10	=10	=10
[0C	0c	[0cc
=11	=11	=11
0C]	0r	0cc]
=12	=12	=12
0c	0g	0r
=13	=13	=13
1f	1a	0r
1f	1a	.
=14	=14	=14
1e	1.g	0gg
1c	.	.
.	4f\	.
.	4e\	.
=15	=15	=15
1r	1f	1aa
1d	1f	1aa
=16	=16	=16
1e	0e	1.gg
1c	.	.
.	.	4ff\
.	.	4ee\
=17	=17	=17
1d	1r	1ff
1B	1d	1ff
=18	=18	=18
0c	1e	0ee
.	1g	.
=19	=19	=19
1d	1.f	1r
1B	.	1dd
.	4e\	.
.	4d\	.
=20	=20	=20
1.c	0c	1ee
.	.	1gg
2B\	.	.
=21	=21	=21
0A	1c	2ff\
.	.	1ee
.	1c	.
.	.	4dd\
.	.	4cc\
=22	=22	=22
0G;l	0g;l	0b;l
!!LO:LB:g=z
=23||	=23||	=23||
*>B	*>B	*>B
1.G	0g	0r
4F\	.	.
4E\	.	.
=24	=24	=24
1D	1f	0r
1E	[1e	.
=25	=25	=25
0C	1e]	0gg
.	1c	.
=26	=26	=26
1r	1d	1ff
[1c	1e	[1ee
=27	=27	=27
1c]	0c	1ee]
1A	.	1cc
=28	=28	=28
1B	1r	1dd
[1c	1c	1ee
=29	=29	=29
2c\]	1e	1.cc
2B\	.	.
1A	1f	.
.	.	4b\
.	.	4a/
=30	=30	=30
1G	1g	1b
[1F	[1a	[1cc
=31	=31	=31
1F]	1a]	1cc]
1G	[1g	1b
=32	=32	=32
0D	1g]	0a
.	1f#i	.
=33	=33	=33
1G	[0g	0g
1r	.	.
=34	=34	=34
1.G	0g]	1r
.	.	[1gg
2F\	.	.
=35	=35	=35
1E	0r	1gg]
1D	.	1ff
=36	=36	=36
0C	1r	1.ee
.	1g	.
.	.	4dd\
.	.	4cc\
=37	=37	=37
1G	1g	1b
1B	1f	[1dd
=38	=38	=38
1c	1e	2dd\]
.	.	2cc\
1A	1c	[1cc
=39	=39	=39
0G	0d	1cc]
.	.	1b
=40	=40	=40
1.C	1.c	1cc
.	.	[1gg
2D\	4B\	.
.	4A/	.
=41	=41	=41
1E	1G	1gg]
1D	2A/	1ff
.	2B\	.
=42	=42	=42
0C	1c	1.ee
.	[1g	.
.	.	4dd\
.	.	4cc\
=43	=43	=43
1G	1g]	2b\
.	.	2cc\
1B	1f	[1dd
=44	=44	=44
1c	1e	2dd\]
.	.	2cc\
1A	1c	[1cc
=45	=45	=45
0G	0d	2cc\]
.	.	4b\
.	.	4a/
.	.	1b
=46	=46	=46
0Cl	0cl	0ccl
==	==	==
*-	*-	*-
!!!RDF**kern: l=long note in original notation
!!!RDF**kern: i=editorial accidental
!!!ENC:	Jesse Rodin; Victoria Chang 2011/05/30
!!!END:	2011/05/30/
!!!EED:	Jesse Rodin
!!!EEV:	2011/08/09/
!!attribution-level@Jos: 3 (tricky)
!!!ONB:	Translated from MusicXML and edited on 2011/08/09/ by Craig Sapp
!!muse2ps:  C^@{COM}{/}@{COA}?\n@{SCT}^v100,100,150I150Q16
